image/icons/twitter-icon.svg

<svg width="20" height="17" viewBox="0 0 20 17" fill="none" xmlns="http://www.w3.org/2000/svg">
<path d="M13.8641 2.04374C13.1063 2.04361 12.3787 2.34819 11.838 2.89193C11.2972 3.43567 10.9865 4.17511 10.9726 4.95114L10.9447 6.55955C10.9431 6.6459 10.9236 6.73093 10.8877 6.80905C10.8517 6.88717 10.8 6.95662 10.736 7.01284C10.6719 7.06906 10.597 7.11078 10.5162 7.13527C10.4353 7.15975 10.3503 7.16645 10.2667 7.15491L8.71031 6.93842C6.66235 6.65248 4.70013 5.68641 2.81769 4.08004C2.22145 7.46026 3.38601 9.8019 6.19074 11.6084L7.9326 12.7297C8.01536 12.783 8.08412 12.8562 8.13286 12.943C8.18159 13.0298 8.20882 13.1275 8.21217 13.2275C8.21551 13.3276 8.19487 13.427 8.15204 13.517C8.10922 13.607 8.04551 13.6848 7.9665 13.7438L6.37918 14.9315C7.3234 14.9917 8.21975 14.9488 8.96356 14.7977C13.6677 13.8357 16.7955 10.2104 16.7955 4.23016C16.7955 3.74202 15.7864 2.04374 13.8641 2.04374ZM8.97851 4.91335C8.99592 3.92895 9.29646 2.97169 9.84252 2.16141C10.3886 1.35113 11.1559 0.723842 12.0484 0.358092C12.9409 -0.00765845 13.9188 -0.0956204 14.8599 0.105219C15.801 0.306059 16.6633 0.786775 17.3389 1.48718C18.0478 1.48207 18.651 1.66589 20 0.828497C19.666 2.50329 19.5015 3.23039 18.7896 4.23016C18.7896 12.0343 14.1064 15.8291 9.3544 16.8003C6.09602 17.4661 1.35799 16.3724 0 14.9202C0.691959 14.8651 3.50366 14.5556 5.12887 13.3373C3.75393 12.4091 -1.71893 9.11054 1.87746 0.24232C3.56548 2.26126 5.27743 3.63581 7.01231 4.36496C8.16691 4.85003 8.45007 4.83982 8.97951 4.91437L8.97851 4.91335Z" fill="#122947"/>
</svg>

<svg width="20" height="17" fill="none" xmlns="http://www.w3.org/2000/svg"><path d="M13.864 2.044c-.758 0-1.485.304-2.026.848a2.997 2.997 0 00-.865 2.06l-.028 1.608a.626.626 0 01-.209.453.595.595 0 01-.47.142L8.71 6.938C6.662 6.652 4.7 5.686 2.818 4.08c-.597 3.38.568 5.722 3.373 7.528l1.742 1.122a.607.607 0 01.28.497.626.626 0 01-.246.517l-1.588 1.188c.944.06 1.84.017 2.585-.134 4.704-.962 7.832-4.588 7.832-10.568 0-.488-1.01-2.186-2.932-2.186zM8.98 4.914a5.087 5.087 0 01.864-2.753A4.908 4.908 0 0112.048.358 4.777 4.777 0 0114.86.105a4.86 4.86 0 012.479 1.382c.709-.005 1.312.179 2.661-.659-.334 1.675-.498 2.402-1.21 3.402 0 7.804-4.684 11.6-9.436 12.57-3.258.666-7.996-.428-9.354-1.88.692-.055 3.504-.364 5.129-1.583C3.754 12.41-1.72 9.111 1.877.242c1.688 2.02 3.4 3.394 5.135 4.123 1.155.485 1.438.475 1.968.55l-.001-.002z" fill="#122947"/></svg>
